X: 27972
T: Mouse In The Mug, The
R: jig
M: 6/8
K: Gmajor
~G3 EGD|~G3 B/c/dg|e2e dBG|~A3 AGE|
~G3 EGD|~G3 B/c/dg|e2e dBG|AGF G2D|
GBG ~E3|~G3 B/c/dg|e2e dBG|~A3 AGE|
~G3 EGD|~G3 B/c/dg|e2e dBG|AGF GB/c/d||
g2g ged|~e3 edB|d2g edB|~A3 AB/c/d|
g2b agf|~e3 edB|d2g edB|AGF GB/c/d|
g2g ged|~e3 edB|d2g edB|~A3 ~B3|
~G3 EGD|~G3 B/c/dg|e2e dBG|AGF G2D||

